X:1
T:James Gibb editions
T:Adoramoste - de la Torre
T:#
%%score [ 1 2 3 4 ]
L:1/8
Q:1/4=150
M:none
K:F
V:1 treble nm="Soprano" snm="S"
V:2 treble nm="Altus"
V:3 treble-8 nm="Tenor"
V:4 bass nm="Bas sus"
V:1
"^Adoramoste, Señor""^Francisco de la Torre\n(1460-1505)" F8 F8 | G4 G4 A8 | (G4 c8 =B4) | %3
w: A- do-|ra- mos- te,|Se\- * *|
 c8 z4 c4- | c4 c4 B4 B4 | B4 B4 G8 | A8 z8 | A4 A4 c4 c4 | c4 c4 d8 | c4 c4 A4 A4 | F8 G4 (A4- | %11
w: ñor, Dios|* y hom- bre|ver- da- de-|ro,|Re- me- dio del|Ha- ce- dor|Que hi- zó~~el hom-|bre pri- me\-|
 A4 G2 F2 G8) | F16- | F16 | F8 G8 | A8 B8 | (A4 c8 B2 A2) | G8 F8 | z8 A8 | B8 c8 | d8 (c8- | %21
w: |ro.||¡Oh per-|fe- ta|Ma\- * * *|ges- tad|Quien|to- do|mun- do|
 c4 A4) B8 | A16 | F8 G8 | A8 B8 | (A4 c8 B2 A2) | G8 F8 | z8 A8 | B8 c8 | d8 (c8- | c4 A4) B8 | %31
w: * * cri-|ó,|Al- ti-|si- ma|Tri\- * * *|ni- dad|Que|a to-|dos re\-|* * di-|
 A16 | F8 F8 | G4 G4 A8 | (G4 c8 =B4) | c8 z4 c4- | c4 c4 B4 B4 | B4 B4 G8 | A8 z8 | A4 A4 c4 c4 | %40
w: mió.|Ex- ce-|len- te Re-|den\- * *|tor Hi\-|* jo de Dios|ver- da- de-|ro,|Re- me- dio del|
 c4 c4 d8 | c4 c4 A4 A4 | F8 G4 (A4- | A4 G2 F2 G8) | F16- | F16 |] %46
w: Ha- ce- dor|Que hi- zó~~el hom-|bre pri- me\-||ro.||
V:2
 C8 D8 | B,4 B,4 C8- | C4 (F4 G8) | G8 z4 G4- | G4 G4 G4 G4 | G4 G4 C8 | C8 z8 | C4 C4 F4 F4 | %8
w: A- do-|ra- mos- te,|* Se\- *|ñor, Dios|* y hom- bre|ver- da- de-|ro,|Re- me- dio del|
 F4 F4 F8 | F4 F4 C4 C4 | B,12 C4- | C8 C8 | C16- | C16 | C8 C8 | C8 B,8 | (C12 D4) | C8 C8 | %18
w: Ha- ce- dor|Que hi- zó~~el hom-|bre pri\-|* me-|ro.||¡Oh per-|fe- ta|Ma\- *|ges- tad|
 z8 C8 | G8 (G6 F2) | (D4 B,4) C8- | C8 B,8 | C16 | C8 C8 | C8 B,8 | (C12 D4) | C8 C8 | z8 C8 | %28
w: Quien|to- do *|mun\- * do|* cri-|ó,|Al- ti-|si- ma|Tri\- *|ni- dad|Que|
 G8 (G6 F2) | (D4 B,4) C8- | C8 B,8 | C16 | C8 D8 | B,4 B,4 C8- | C4 (F4 G8) | G8 z4 G4- | %36
w: a to\- *|dos * re\-|* di-|mió.|Ex- ce-|len- te Re\-|* den\- *|tor Hi\-|
 G4 G4 G4 G4 | G4 G4 C8 | C8 z8 | C4 C4 F4 F4 | F4 F4 F8 | F4 F4 C4 C4 | B,12 C4- | C8 C8 | C16 | %45
w: * jo de Dios|ver- da- de-|ro,|Re- me- dio del|Ha- ce- dor|Que hi- zó~~el hom-|bre pri\-|* me-|ro.|
 C16 |] %46
w: |
V:3
 F8 D8 | E4 E4 F8 | (E4 C4 D8) | C8 z4 E4- | E4 E4 D4 D4 | D4 D4 E8 | F8 z8 | F4 F4 A4 A4 | %8
w: A- do-|ra- mos- te,|Se\- * *|ñor, Dios|* y hom- bre|ver- da- de-|ro,|Re- me- dio del|
 A4 A4 B8 | A4 A4 F4 F4 | D8 E4 (F4- | F4 E2 D2 E8) | F16- | F16 | F8 E8 | F8 (D4 E4) | F8- F8 | %17
w: Ha- ce- dor|Que hi- zó~~el hom-|bre pri- me\-||ro.||¡Oh per-|fe- ta *|Ma\- *|
 E8 F8 | z8 F8 | D8 E8 | F8 F8- | F8 (D4 E4) | F16 | F8 E8 | F8 (D4 E4) | F16 | E8 F8 | z8 F8 | %28
w: ges- tad|Quien|to- do|mun- do|* cri\- *|ó,|Al- ti-|si- ma *|Tri-|ni- dad|Que|
 D8 E8 | F8 F8- | F8 (D4 E4) | F16 | F8 D8 | E4 E4 F8 | (E4 C4 D8) | C8 z4 E4- | E4 E4 D4 D4 | %37
w: a to-|dos re\-|* di\- *|mió.|Ex- ce-|len- te Re-|den\- * *|tor Hi\-|* jo de Dios|
 D4 D4 E8 | F8 z8 | F4 F4 A4 A4 | A4 A4 B8 | A4 A4 F4 F4 | D8 E4 (F4- | F4 E2 D2 E8) | F16- | %45
w: ver- da- de-|ro,|Re- me- dio del|Ha- ce- dor|Que hi- zó~~el hom-|bre pri- me\-||ro.|
 F16 |] %46
w: |
V:4
 F,,8 B,,8 | G,,4 G,,4 F,,8 | (C,4 A,,4 G,,8) | C,8 z4 C,4- | C,4 C,4 G,,4 G,,4 | G,,4 G,,4 C,8 | %6
w: A- do-|ra- mos- te,|Se\- * *|ñor, Dios|* y hom- bre|ver- da- de-|
 F,,8 z8 | F,,4 F,,4 F,,4 F,,4 | F,,4 F,,4 B,,8 | F,,4 F,,4 F,,4 F,,4 | B,,8 G,,4 (F,,4- | %11
w: ro,|Re- me- dio del|Ha- ce- dor|Que hi- zó~~el hom-|bre pri- me\-|
 F,,8 C,8) | F,,16- | F,,16 | F,,8 C,8 | F,,8 G,,8 | (F,,8 A,,4 B,,4) | C,8 F,,8 | z8 F,,8 | %19
w: |ro.||¡Oh per-|fé- ta|Ma\- * *|ges- tad|Quien|
 G,,8 C,8 | B,,8 (A,,4 F,,4- | F,,4 A,,4) G,,8 | F,,16 | F,,8 C,8 | F,,8 G,,8 | (F,,8 A,,4 B,,4) | %26
w: to- do|mun- do *|* * cri-|ó,|Al- ti-|si- ma|Tri\- * *|
 C,8 F,,8 | z8 F,,8 | G,,8 C,8 | B,,8 (A,,4 F,,4- | F,,4 A,,4) G,,8 | F,,16 | F,,8 B,,8 | %33
w: ni- dad|Que|a to-|dos re\- *|* * di-|mió.|Ex- ce-|
 G,,4 G,,4 F,,8 | (C,4 A,,4 G,,8) | C,8 z4 C,4- | C,4 C,4 G,,4 G,,4 | G,,4 G,,4 C,8 | F,,8 z8 | %39
w: len- te Re-|den\- * *|tor Hi\-|* jo de Dios|ver- da- de-|ro,|
 F,,4 F,,4 F,,4 F,,4 | F,,4 F,,4 B,,8 | F,,4 F,,4 F,,4 F,,4 | B,,8 G,,4 (F,,4- | F,,8 C,8) | %44
w: Re- me- dio del|Ha- ce- dor|Que hi- zó~~el hom-|bre pri- me\-||
 F,,16- | F,,16 |] %46
w: ro.||

